symbols/web/lock_open/materialsymbolssharp/lock_open_wght700grad200fill1_20px.svg

<svg xmlns="http://www.w3.org/2000/svg" height="20" width="20"><path d="M2.375 19.333V5.771h9.458V4.75q0-.854-.531-1.385-.531-.532-1.302-.532t-1.302.532q-.531.531-.531 1.385H5.25q0-2.104 1.375-3.469Q8-.083 10-.083t3.375 1.375Q14.75 2.667 14.75 4.75v1.021h2.875v13.562ZM10 14.375q.771 0 1.281-.521.511-.521.511-1.292 0-.75-.511-1.27-.51-.521-1.281-.521-.771 0-1.281.521-.511.52-.511 1.27 0 .771.511 1.292.51.521 1.281.521Z"/></svg>

<svg xmlns="http://www.w3.org/2000/svg" height="20" width="20"><path d="M2.375 19.333V5.771H11.833V4.75Q11.833 3.896 11.302 3.365Q10.771 2.833 10 2.833Q9.229 2.833 8.698 3.365Q8.167 3.896 8.167 4.75H5.25Q5.25 2.646 6.625 1.281Q8 -0.083 10 -0.083Q12 -0.083 13.375 1.292Q14.75 2.667 14.75 4.75V5.771H17.625V19.333ZM10 14.375Q10.771 14.375 11.281 13.854Q11.792 13.333 11.792 12.562Q11.792 11.812 11.281 11.292Q10.771 10.771 10 10.771Q9.229 10.771 8.719 11.292Q8.208 11.812 8.208 12.562Q8.208 13.333 8.719 13.854Q9.229 14.375 10 14.375Z"/></svg>
